X:25
T:Vals
R:vals
Z:id:hn-vals-25
M:3/4
L:1/8
K:D
A2 |: d2 AF Ad | c2 AE Ac | d2 B2 G2 | A3 DEF | G2 g2 f2 | e4 d2 | c2 BA Bc |
A3 ABc | d2 AF Ad | c2 AE Ac | d2 B2 G2 | A3 DEF | G2 GF E2 | FA fe d2 |
cd e2 c2 |1 d4 A2 :|2 d3 Adc |: B2 BF Bc | d3 c B2 | A2 E2 FG | F6 | f3 g f2 |
e3 d c2 | d3 c B2 | c3 Adc | B2 BF Bc | d3 c B2 | e2 ed ef | g4 a2 | f3 e d2 |
ce a2 c2 |1 d6- | d3 Adc :|2 d6- | d4 ||
<end>
<start>
